!!!!SEGMENT: pl-sa--18-a-i-18--004_barcicki-jan--polonaisso-no-4.krn
!!!cenid: 18xx:335
!!!COM: Barcicki, Jan
!!!COM-rismid: pe41021407
!!!CDT: ~1750-<~1812
!!!CNT: Polish
!!!OTL: Polonaisso – No. 4
!!!PDT:
!!!AGN: Secular; Polonaise
!!!SMS-siglum: PL-SA
!!!SMS-shelfmark: 18/A I 18
!!!SMS-shelfwork: 004 W
!!!SMS-variant:
!!!SMS-altvar:
!!!NIFC-rismid: 1001065332
!!!URL-scan: http://bc.bdsandomierz.pl/dlibra/publication/1284/edition/1252/content
!!!ONB-nifc:
**kern	**kern	**dynam
*part1	*part1	*part1
*staff2	*staff1	*
*I"Pianoforte	*	*
*I'P-no	*	*
*clefF4	*clefG2	*
*k[b-e-a-]	*k[b-e-a-]	*
*E-:	*E-:	*
*M3/4	*M3/4	*
=1	=1	=1
!	!LO:TX:a:i:t=dol.	!
!	!LO:TX:a:t=No 4to&colon; Tyrolczyk.	!
.	(>8qqb-	.
*2\right	*	*
*tremolo	*	*
!LO:TX:a:t=P:problem:mixed beam	!	!
8EE-/L	4.ee-)\	f fp
8E-\	.	.
8EE-/	.	.
8E-\	8ee-\	.
8EE-/	(16dd\LL	.
.	16ee-\	.
8E-\J	16dd\	.
.	16cc\JJ)	.
*	*	*
=2	=2	=2
!LO:TX:a:t=P:problem:mixed beam	!	!
8EE-/L	8.b-/L	.
8E-\	.	.
.	16g/Jk	.
!	!	!LO:DY:rj
8EE-/	(4.e-/	f
8E-\	.	.
8EE-/	.	.
8E-\J	8g/)	.
*Xtremolo	*	*
=3	=3	=3
4BB-/	(8.f/L	.
.	16en/Jk)	.
!	!	!LO:DY:t=pia
4D/	8fL 8d/	p
.	8a-J 8f/	.
4E-\	(8.ccL 8.a-\	.
.	16b-Jk 16g\)	.
=4	=4	=4
8r	(4.b- 4.g/	.
8G\L	.	.
8F\	.	.
*	*Xtuplet	*
8D\J	24a-/LL	.
.	24g/	.
.	24a-/JJ)	.
!	!	!LO:DY:t=for
!	!	!LO:DY:b=2
4E-\	4g 4e-/	f
=5	=5	=5
!	!	!LO:DY:t=for
4B- 4G 4E-\	8.ggL 8.ee- 8.b-/	f
.	16ff/Jk	.
8r	4ff 4dd 4b-/	.
16B-\LL	.	.
!	!	!LO:DY:b=2
16c\JJ	.	p
8B-\L	8r	.
8B-\J	8b-/	.
!!LO:LB:g=original
=6	=6	=6
4B- 4F 4D\	8.aa-L 8.b-/	f
.	16gg/Jk	.
8r	4gg 4ee-\	.
16B-\LL	.	.
!	!	!LO:DY:b=2
16c\JJ	.	p
8B-\L	8r	.
8B-\J	8b-\	.
=7	=7	=7
!	!	!LO:DY:b=2
.	8qb-/	f
4E-/	8bb-\	.
.	4bb-\	.
4G 4GG/	.	.
.	8gg\	.
4G 4GG/	16ff\LL	.
.	16ee-\	.
.	16dd\	.
.	16ee-\JJ	.
=8	=8	=8
4A-/ 4AA-/	16cc\LL	.
.	16aa-\	.
.	16ff\	.
.	16dd\JJ	.
.	8qqff/	.
*	*2\right	*
!LO:TX:a:t=P:problem:mixed beam	!	!
8B-\L	2ee-\	.
8BB-/J	.	.
4E-\	.	.
=9||	=9||	=9||
*tremolo	*	*
!LO:TX:a:t=P:problem:mixed beam	!	!
!	!	!LO:DY:rj
8BB-/L	4.b- 4.d 4.B-/	f
8B-\	.	.
8BB-/	.	.
8B-\	16b-\LL	.
.	16an\JJ	.
8BB-/	8b-\L	.
8B-\J	8cc\J	.
*Xtremolo	*	*
=10	=10	=10
!	!	!LO:DY:rj
4BB-/	(4dd\	p
8r	4b-\)	.
(16B-\LL	.	.
16c\JJ)	.	.
8B-'\L	4r	.
8B-'\J	.	.
!!LO:LB:g=original
=11	=11	=11
!LO:TX:a:t=P:problem:mixed beam	!	!
!	!	!LO:DY:rj
!	!	!LO:DY:t=f&colon;
8BB-/L	4.dd 4.b- 4.f/	f
8B-\J	.	.
8BB-/L	.	.
8B-\J	16dd\LL	.
.	16cc\JJ	.
8BB-/L	8ddL 8b-\	.
8B-\J	8ee-J 8cc\	.
=12	=12	=12
4BB-/	(4ff\	.
8r	4dd 4b-\)	.
16B-\LL	.	.
16c\JJ	.	.
8B-\L	4r	.
8B-\J	.	.
=13	=13	=13
*	*	*^
*clefG2	*	*	*
!	!	!	!LO:DY:b=2
.	8qqb-/	.	pp
(8.a-L 8.B-/	4.aa-\	f	.
16b-/Jk)	.	.	.
(8.a-L 8.B-/	.	.	.
.	8ff\	p	.
16b-/Jk)	.	.	.
(8.a-L 8.B-/	(16ee-\LL	.	.
.	16dd\	.	.
.	16cc\	.	.
16b-/Jk)	16dd\JJ)	.	.
*	*	*v	*v
=14	=14	=14
8.gL 8.B-/	8ee-\L	.
.	8gg\J	.
16b-/Jk	.	.
*tremolo	*	*
8gL 8B-/	(4.bb-\	.
8b-/	.	.
8g 8B-/	.	.
8b-/J	8gg\)	.
*Xtremolo	*	*
=15	=15	=15
*tremolo	*	*
(8a- 8B-/LL	8aa-'\	f
8b-/	4aa-'\	.
8a- 8B-/	.	.
8b-/	8ff'\	.
8a- 8B-/	(16ee-\LL	.
.	16dd\	.
8b-/)JJ	16cc\	.
.	16dd\JJ)	.
=16	=16	=16
(8gL 8B-/	(16ee-\LL	.
.	16gg\J)	.
8b-/)	8ggt\J	.
(8g 8B-/	(4.bb-\	.
8b-/)	.	.
(8g 8B-/	.	.
8b-/Jk)	8gg\)	.
*Xtremolo	*	*
!!LO:LB:g=original
=17	=17	=17
*clefF4	*	*
!	!	!LO:DY:t=for
!	!	!LO:DY:rj
16E-\LL	4ee- 4g 4e-/	f
16G\	.	.
16B-\	.	.
16G\JJ	.	.
8r	8dd/L 8f/	.
!	!	!LO:DY:rj
8E-L 8EE-/	8ee-J 8g\	p
8D 8DD/	8ff\L 8b-\	.
8E-J 8EE-/	8ggJ 8ee-\	.
=18	=18	=18
16BB-/LL	8ffL 8b-\	.
16F/	.	.
16D/	8ffJ 8b-\	f
16BB-/JJ	.	.
8r	8eenL 8b-\	.
8DL 8DD/	8ffJ 8b-\	p
8E- 8EE-/	8ggL 8ee-X 8b-\	.
8FJ 8FF/	8aa-J 8ff 8b-\	.
=19	=19	=19
!	!	!LO:DY:t=for
!	!	!LO:DY:rj
8E-L 8EE-/	8gg 8b-\	f
8G/J	4bb- 4b-\	.
8E-\L	.	.
8G\J	8gg\	.
!LO:TX:a:t=P:problem:mixed beam	!	!
8GG/L	16ff\LL	.
.	16ee-\	.
8G\J	16dd\	.
.	16ee-\JJ	.
=20	=20	=20
4A-\	16ff\LL	.
.	16aa-\	.
.	16dd\	.
.	16ff\JJ	.
.	8qqff/	.
!LO:TX:a:t=P:problem:mixed beam	!	!
8B-\L	2ee-\	.
8BB-/J	.	.
4E-\	.	.
!!LO:LB:g=original
=21||	=21||	=21||
!	!	!LO:DY:b=2
.	16qqe-/LL	p
!	!LO:TX:t=P:problem:w źródle "Trio" zapisane na dolnej pięciolinii, przed taktem 21	!
!	!LO:TX:a:t=Trio	!
!	!LO:TX:a:t=dol&colon;	!
.	16qqg/JJ	.
(8.E-\L	4.b- 4.g/	.
16BB-\K)	.	.
8E-'\	.	.
8BB-'\J	16a-LL 16f/	.
.	16gJJ 16e-/	.
(8.E-\L	8.g/L	.
16BB-\Jk)	16f/Jk	.
=22	=22	=22
*tremolo	*	*
8E-\L	8e- 8G/	.
8BB-\	4e- 4G/	.
8E-\	.	.
8BB-\	(16f/LL	.
.	16g/JJ)	.
8E-\	(8.gL 8.e-/	.
8BB-\J	.	.
.	16fJk 16d/)	.
*Xtremolo	*	*
=23	=23	=23
4E-\	8.gL 8.e-/	.
.	16a-Jk 16f/	.
4EE-/	8b-L 8g'>/	.
.	8b- 8g'>/	.
4r	8b- 8g'>/	.
.	8b-J 8g'>/	.
!!LO:LB:g=original
=24	=24	=24
4E-\	4b- 4g/	.
!LO:TX:a:t=P:problem:mixed beam	!	!
8D\L	16a-/LL	.
.	16g/	.
8E-\	16f/	.
.	16g/JJ	.
.	8qqg/	.
8B-\	4f/	.
8BB-/J	.	.
=25||	=25||	=25||
!LO:TX:a:t=P:problem:mixed beam	!	!
!	!	!LO:DY:t=for
16EE-/LL	4.bb- 4.b-\	f
16E-\	.	.
16D\	.	.
16E-\JJ	.	.
*rep	*	*
16EE-\LL	.	.
16E-\	.	.
16D\	16aa-\LL	.
16E-\JJ	16gg\JJ	.
*Xrep	*	*
*rep	*	*
16EE-\LL	8.ggL 8.b-\	.
16E-\	.	.
16D\	.	.
16E-\JJ	16ff\Jk	.
*Xrep	*	*
=26	=26	=26
!LO:TX:a:t=P:problem:mixed beam	!	!
16EE-/LL	8ee-\	.
16E-\	.	.
16D\	4ee- 4g\	.
16E-\JJ	.	.
*rep	*	*
16EE-\LL	.	.
16E-\	.	.
16D\	(16ff\LL	.
16E-\JJ	16gg\JJ)	.
*Xrep	*	*
*rep	*	*
16EE-\LL	(8.gg\L	.
16E-\	.	.
16D\	.	.
16E-\JJ	16ff\Jk)	.
*Xrep	*	*
=27	=27	=27
4EE-/	8.ggL 8.ee-\	.
.	16aa-Jk 16ff\	.
4E-\	8bb-L 8gg\	.
.	8bb- 8gg\	.
4r	8bb- 8gg\	.
.	8bb-J 8gg\	.
=28	=28	=28
8r	16bb-\LL	.
.	16gg\	.
!LO:TX:a:t=P:problem:mixed beam	!	!
8A-\L	16aa-\	.
.	16ff\JJ	.
.	8qqff/	.
8B-\	2ee-\	.
8BB-/J	.	.
4E-\	.	.
!!LO:LB:g=original
=29||	=29||	=29||
!LO:TX:a:t=P:problem:mixed beam	!	!
8BB-/L	4.ff 4.dd\	f
8B-\J	.	.
4BB-/	.	.
.	16ffLL 16dd\	.
.	16ggJJ 16ee-\	.
4r	8.aa-L 8.ff\	p
.	16ggJk 16ee-\	.
=30	=30	=30
*	*^	*
4B- 4BB-/	8ffL 8dd/	8ryy	.
.	16ffL 16dd/	16ryy	.
.	16ggJJ 16ee-/	16ryy	.
2r	2aa- 2ff/	16ryy	.
.	.	16ryy	.
.	.	16b-\LL	.
.	.	16cc\JJ	.
.	.	8b-\L	.
.	.	8b-\J	.
*	*v	*v	*
=31	=31	=31
!LO:TX:a:t=P:problem:mixed beam	!	!
8EE-/L	4.gg 4.ee- 4.b-/	f
8E-\J	.	.
4EE-/	.	.
.	16gg\LL	.
.	16ff\JJ	.
4r	8ee-L 8g\	.
.	16ee-L 16g\	.
.	16ff\JJ	.
=32	=32	=32
*	*^	*
4E- 4EE-/	8ggL 8ee-\	4ryy	.
.	16ggL 16ee-\	.	.
.	16aa-JJ 16ff\	.	.
2r	2bb- 2gg\	8ryy	.
.	.	16b-\LL	.
.	.	16cc\JJ	.
.	.	8b-\L	.
.	.	8b-\J	.
*	*v	*v	*
==	==	==
*-	*-	*-
!!!system-decoration: {(s1,s2)}
!!!RDF**kern: > = above
!!!RDF**kern: < = below
!!!EED: Antoni Szymański
!!!EST: 2020-10-04
!!!ENC: Tomasz Grochalski
!!!END: 2020-06-02
